X: 25262
T: Man In The Bog
R: jig
M: 6/8
K: Gmajor
|:~G3 dBG|ABc AGE|EDB, DEG|BAG ABA|
~G3 dBG|ABc AGE|EDB, DGB|1 AGF G2D:|2 AGF GBd||
~g3 ~f3|e/f/ge dBA|BEE dEE|BAG AB/c/d|
~g3 fed|ege dBA|BAB GAB|AGF GB/c/d|
~g3 fed|e/f/ge dBA|BEE dEE|B/c/dB AFD|
~G3 dBG|ABc AGE|EDB, DGB|AGF G2D||

